X: 161871
T: Paddy Mills' (B)
S: "The Killavil Sessions" (Ceoltoiri Coleman)
L: 1/8
M: 4/4
R: reel
K: G
z2 | DGGG B2 AG | FGAB c2 Bc | d2 eg fdcA | B2 AF GFEF |
DGGG B2 AG | FGAB c2 Bc | d2 eg fdcA | B2 AF G2 :|
Bd | g3f gedc | BGGG FGAB | c2 cB dcAG | FGAB cdef |
g3f gedc | BGGG FGAB | c2 cB dcAG | FGAF G2 :|
